germany/municipalities/03459006.svg

<?xml version="1.0" encoding="UTF-8" standalone="no"?>
<!-- Created with Inkscape (http://www.inkscape.org/) -->
<svg
   xmlns:svg="http://www.w3.org/2000/svg"
   xmlns="http://www.w3.org/2000/svg"
   version="1.0"
   width="199.06914"
   height="308.90845"
   id="svg2440">
  <defs
     id="defs2443" />
  <g
     transform="translate(242.57699,4.347306)"
     id="g3584">
    <g
       transform="translate(-169.54722,-2.6108398)"
       id="g3508">
      <path
         d="M 137.11038,38.79221 A 29.762987,32.103897 0 1 1 77.58441,38.79221 A 29.762987,32.103897 0 1 1 137.11038,38.79221 z"
         transform="matrix(1.0786258,0,0,0.9503118,-94.611797,-6.6525326)"
         id="path2523"
         style="fill:#ffffff;fill-opacity:1;fill-rule:evenodd;stroke:#000000;stroke-width:2.84445238;stroke-linejoin:miter;stroke-miterlimit:4;stroke-dasharray:none;stroke-opacity:1" />
      <path
         d="M 137.11038,38.79221 A 29.762987,32.103897 0 1 1 77.58441,38.79221 A 29.762987,32.103897 0 1 1 137.11038,38.79221 z"
         transform="matrix(0.8660941,0,0,0.7612747,-71.797072,0.6806342)"
         id="path3299"
         style="fill:#ffffff;fill-opacity:1;fill-rule:evenodd;stroke:#000000;stroke-width:3.69460511;stroke-linejoin:miter;stroke-miterlimit:4;stroke-dasharray:none;stroke-opacity:1" />
      <path
         d="M 137.11038,38.79221 A 29.762987,32.103897 0 1 1 77.58441,38.79221 A 29.762987,32.103897 0 1 1 137.11038,38.79221 z"
         transform="matrix(0.2923231,0,0,0.2588039,-10.204249,20.172587)"
         id="path3301"
         style="fill:#ffffff;fill-opacity:1;fill-rule:evenodd;stroke:#000000;stroke-width:7.27131605;stroke-linejoin:miter;stroke-miterlimit:4;stroke-dasharray:none;stroke-opacity:1" />
      <path
         d="M 19.165901,5.8486295 C 19.402369,21.219019 19.402369,21.219019 19.402369,21.219019"
         id="path3303"
         style="fill:none;fill-rule:evenodd;stroke:#000000;stroke-width:2;stroke-linecap:butt;stroke-linejoin:miter;stroke-miterlimit:4;stroke-dasharray:none;stroke-opacity:1" />
      <path
         d="M 22.953584,5.7345998 C 23.181644,21.805983 23.181644,21.805983 23.181644,21.805983"
         id="path3305"
         style="fill:none;fill-rule:evenodd;stroke:#000000;stroke-width:2.00840855;stroke-linecap:butt;stroke-linejoin:miter;stroke-miterlimit:4;stroke-dasharray:none;stroke-opacity:1" />
      <path
         d="M 22.94938,38.599382 C 23.18585,53.969771 23.18585,53.969771 23.18585,53.969771"
         id="path3307"
         style="fill:none;fill-rule:evenodd;stroke:#000000;stroke-width:2;stroke-linecap:butt;stroke-linejoin:miter;stroke-miterlimit:4;stroke-dasharray:none;stroke-opacity:1" />
      <path
         d="M 19.165899,38.599382 C 19.402369,53.969771 19.402369,53.969771 19.402369,53.969771"
         id="path3309"
         style="fill:none;fill-rule:evenodd;stroke:#000000;stroke-width:2;stroke-linecap:butt;stroke-linejoin:miter;stroke-miterlimit:4;stroke-dasharray:none;stroke-opacity:1" />
      <path
         d="M 13.740553,32.465707 C -0.73484063,40.476641 -0.73484063,40.476641 -0.73484063,40.476641"
         id="path3311"
         style="fill:none;fill-rule:evenodd;stroke:#000000;stroke-width:2.15152311;stroke-linecap:butt;stroke-linejoin:miter;stroke-miterlimit:4;stroke-dasharray:none;stroke-opacity:1" />
      <path
         d="M 15.51406,35.421551 C 1.0386663,43.432485 1.0386663,43.432485 1.0386663,43.432485"
         id="path3313"
         style="fill:none;fill-rule:evenodd;stroke:#000000;stroke-width:2.15152311;stroke-linecap:butt;stroke-linejoin:miter;stroke-miterlimit:4;stroke-dasharray:none;stroke-opacity:1" />
      <path
         d="M 45.685742,19.674386 C 29.983865,28.438872 29.983865,28.438872 29.983865,28.438872"
         id="path3315"
         style="fill:none;fill-rule:evenodd;stroke:#000000;stroke-width:2.34384179;stroke-linecap:butt;stroke-linejoin:miter;stroke-miterlimit:4;stroke-dasharray:none;stroke-opacity:1" />
      <path
         d="M 44.030462,16.127373 C 28.328585,24.891859 28.328585,24.891859 28.328585,24.891859"
         id="path3317"
         style="fill:none;fill-rule:evenodd;stroke:#000000;stroke-width:2.34384179;stroke-linecap:butt;stroke-linejoin:miter;stroke-miterlimit:4;stroke-dasharray:none;stroke-opacity:1" />
      <path
         d="M 1.5801724,15.909742 C 15.91842,24.16362 15.91842,24.16362 15.91842,24.16362"
         id="path3319"
         style="fill:none;fill-rule:evenodd;stroke:#000000;stroke-width:2.15152311;stroke-linecap:butt;stroke-linejoin:miter;stroke-miterlimit:4;stroke-dasharray:none;stroke-opacity:1" />
      <path
         d="M -1.6608956,18.816829 C 13.957206,27.40469 13.957206,27.40469 13.957206,27.40469"
         id="path3321"
         style="fill:none;fill-rule:evenodd;stroke:#000000;stroke-width:2.29047513;stroke-linecap:butt;stroke-linejoin:miter;stroke-miterlimit:4;stroke-dasharray:none;stroke-opacity:1" />
      <path
         d="M 28.134011,35.369555 C 43.752111,43.957416 43.752111,43.957416 43.752111,43.957416"
         id="path3323"
         style="fill:none;fill-rule:evenodd;stroke:#000000;stroke-width:2.29047513;stroke-linecap:butt;stroke-linejoin:miter;stroke-miterlimit:4;stroke-dasharray:none;stroke-opacity:1" />
      <path
         d="M 30.262221,31.822542 C 45.880321,40.410403 45.880321,40.410403 45.880321,40.410403"
         id="path3325"
         style="fill:none;fill-rule:evenodd;stroke:#000000;stroke-width:2.29047513;stroke-linecap:butt;stroke-linejoin:miter;stroke-miterlimit:4;stroke-dasharray:none;stroke-opacity:1" />
      <path
         d="M 137.11038,38.79221 A 29.762987,32.103897 0 1 1 77.58441,38.79221 A 29.762987,32.103897 0 1 1 137.11038,38.79221 z"
         transform="matrix(0.1639391,0,0,0.1471469,3.5774392,24.504009)"
         id="path3494"
         style="fill:#ffffff;fill-opacity:1;fill-rule:evenodd;stroke:#000000;stroke-width:12.87695503;stroke-linejoin:miter;stroke-miterlimit:4;stroke-dasharray:none;stroke-opacity:1" />
    </g>
    <g
       id="g3565">
      <path
         d="M -145.75142,81.338487 C -145.78115,81.34225 -145.96964,73.075187 -161.98937,73.122267 C -181.26614,73.265957 -185.94058,81.222369 -201.13742,89.353441 C -224.95106,102.09493 -242.68363,96.92098 -242.57651,96.92672 C -242.28146,96.94253 -235.32708,110.51058 -234.68069,172.62292 C -234.56959,183.29884 -236.24161,212.40935 -224.41766,242.8502 C -220.01317,252.77937 -220.98513,252.77599 -213.76877,260.66599 C -205.70813,269.47908 -205.99268,268.55321 -196.00335,275.04609 C -142.38374,295.62523 -142.34252,304.59682 -142.3342,304.56105 C -142.26068,304.24515 -140.64014,296.90846 -92.490133,275.28851 C -79.093243,269.27314 -78.961303,268.90137 -72.048213,261.69222 C -63.190723,252.45541 -63.658053,252.22713 -60.945223,241.63177 C -55.565483,212.81987 -56.237633,191.43719 -56.267813,172.62292 C -56.381273,101.89226 -43.495563,95.55252 -43.507863,95.57231 C -43.608483,95.65662 -59.004943,99.32509 -75.417043,89.353441 C -91.556483,79.547446 -112.18899,72.39939 -127.99871,72.109802 C -145.75714,72.349022 -145.67813,81.343317 -145.75142,81.338487 z"
         id="path7421"
         style="opacity:1;fill:#da121a;fill-opacity:1;fill-rule:nonzero;stroke:none" />
      <g
         id="g3548">
        <g
           transform="translate(-243.56155,-4.50258)"
           id="g3445">
          <rect
             width="85.61039"
             height="15.048701"
             x="55.17857"
             y="106.34415"
             id="rect3443"
             style="opacity:1;fill:#ffffff;fill-opacity:1;fill-rule:evenodd;stroke:none;stroke-width:2;stroke-linejoin:miter;stroke-miterlimit:4;stroke-dasharray:none;stroke-opacity:1" />
          <rect
             width="18.392857"
             height="9.6592207"
             x="58.522728"
             y="108.94847"
             id="rect3433"
             style="opacity:1;fill:#da121a;fill-opacity:1;fill-rule:evenodd;stroke:none;stroke-width:2;stroke-linejoin:miter;stroke-miterlimit:4;stroke-dasharray:none;stroke-opacity:1" />
          <rect
             width="18.392857"
             height="9.6980515"
             x="78.849701"
             y="108.94847"
             id="rect3437"
             style="opacity:1;fill:#da121a;fill-opacity:1;fill-rule:evenodd;stroke:none;stroke-width:2;stroke-linejoin:miter;stroke-miterlimit:4;stroke-dasharray:none;stroke-opacity:1" />
          <rect
             width="18.392857"
             height="9.6592207"
             x="99.058441"
             y="108.94847"
             id="rect3439"
             style="opacity:1;fill:#da121a;fill-opacity:1;fill-rule:evenodd;stroke:none;stroke-width:2;stroke-linejoin:miter;stroke-miterlimit:4;stroke-dasharray:none;stroke-opacity:1" />
          <rect
             width="18.392857"
             height="9.6001034"
             x="119.32629"
             y="108.94847"
             id="rect3441"
             style="opacity:1;fill:#da121a;fill-opacity:1;fill-rule:evenodd;stroke:none;stroke-width:2;stroke-linejoin:miter;stroke-miterlimit:4;stroke-dasharray:none;stroke-opacity:1" />
        </g>
        <rect
           width="125.09132"
           height="15.133922"
           x="-205.72675"
           y="240.17825"
           id="rect3528"
           style="opacity:1;fill:#ffffff;fill-opacity:1;fill-rule:evenodd;stroke:none;stroke-width:2;stroke-linejoin:miter;stroke-miterlimit:4;stroke-dasharray:none;stroke-opacity:1" />
        <path
           d="M -180.5325,118.58452 C -180.58037,118.72821 -176.56018,122.3413 -176.60798,122.35033 C -176.55089,122.24703 -114.31335,122.32768 -114.30342,122.3073 C -114.27172,122.24227 -110.41637,118.61409 -110.17414,118.65891 C -110.20854,118.56372 -180.56471,118.53744 -180.5325,118.58452 z"
           id="path3532"
           style="opacity:1;fill:#ffffff;fill-opacity:1;fill-rule:nonzero;stroke:none" />
        <path
           d="M -173.39424,124.68411 C -173.44211,124.8278 -174.38774,169.70447 -174.43554,169.7135 C -174.37845,169.6102 -115.56968,169.57262 -115.55975,169.55224 C -115.52805,169.48721 -117.34792,124.59545 -117.10569,124.64027 C -117.14009,124.54508 -173.42645,124.63703 -173.39424,124.68411 z"
           id="path3534"
           style="opacity:1;fill:#ffffff;fill-opacity:1;fill-rule:nonzero;stroke:none" />
        <path
           d="M -174.53373,185.78311 C -174.5816,185.9268 -176.4731,238.6069 -176.5209,238.61593 C -176.46381,238.51263 -110.56101,238.59328 -110.55108,238.5729 C -110.51938,238.50787 -113.52159,185.69445 -113.27936,185.73927 C -113.31376,185.64408 -174.56594,185.73603 -174.53373,185.78311 z"
           id="path3536"
           style="opacity:1;fill:#ffffff;fill-opacity:1;fill-rule:nonzero;stroke:none" />
        <path
           d="M -177.24448,198.61637 C -177.29235,198.76006 -195.73742,238.64877 -195.78522,238.6578 C -195.72813,238.5545 -187.76284,238.63515 -187.75291,238.61477 C -187.72121,238.54974 -177.514,213.40921 -177.27177,213.45403 C -177.30617,213.35884 -177.27669,198.56929 -177.24448,198.61637 z"
           id="path3538"
           style="opacity:1;fill:#ffffff;fill-opacity:1;fill-rule:nonzero;stroke:none" />
        <path
           d="M -110.657,197.94754 C -110.60913,198.09123 -91.244423,238.64877 -91.196623,238.6578 C -91.253703,238.5545 -99.637023,238.63515 -99.646953,238.61477 C -99.678653,238.54974 -109.88585,213.40921 -110.12808,213.45403 C -110.09368,213.35884 -110.62478,197.90046 -110.657,197.94754 z"
           id="path3540"
           style="opacity:1;fill:#ffffff;fill-opacity:1;fill-rule:nonzero;stroke:none" />
        <path
           d="M -184.56934,172.53115 C -184.52147,172.67484 -104.04231,172.43368 -103.99451,172.44271 C -104.05159,172.33941 -113.27094,185.88029 -113.28087,185.85991 C -113.31257,185.79488 -174.35095,185.90272 -174.59318,185.94754 C -174.55878,185.85235 -184.53712,172.48407 -184.56934,172.53115 z"
           id="path3542"
           style="opacity:1;fill:#ffffff;fill-opacity:1;fill-rule:nonzero;stroke:none" />
        <path
           d="M -178.62092,174.62435 C -178.57305,174.76804 -146.33327,174.52688 -146.28547,174.53591 C -146.34255,174.43261 -146.57614,183.00767 -146.58607,182.98729 C -146.61777,182.92226 -171.24014,183.0301 -171.48237,183.07492 C -171.44797,182.97973 -178.5887,174.57727 -178.62092,174.62435 z"
           id="path3544"
           style="opacity:1;fill:#ffffff;fill-opacity:1;fill-rule:nonzero;stroke:#da121a;stroke-width:1.39999998;stroke-miterlimit:4;stroke-dasharray:none;stroke-opacity:1" />
        <path
           d="M -110.81533,174.62435 C -110.8632,174.76804 -143.10298,174.52688 -143.15078,174.53591 C -143.0937,174.43261 -142.86011,183.00767 -142.85018,182.98729 C -142.81848,182.92226 -118.19611,183.0301 -117.95388,183.07492 C -117.98828,182.97973 -110.84755,174.57727 -110.81533,174.62435 z"
           id="path3546"
           style="opacity:1;fill:#ffffff;fill-opacity:1;fill-rule:nonzero;stroke:#da121a;stroke-width:1.39999998;stroke-miterlimit:4;stroke-dasharray:none;stroke-opacity:1" />
      </g>
    </g>
  </g>
</svg>

<svg xmlns="http://www.w3.org/2000/svg" version="1.0" width="199.069" height="308.908"><path d="M137.11 38.792a29.763 32.104 0 1 1-59.526 0 29.763 32.104 0 1 1 59.526 0z" transform="matrix(1.07863 0 0 .95031 -21.582 -4.916)" style="fill:#fff;fill-opacity:1;fill-rule:evenodd;stroke:#000;stroke-width:2.84445238;stroke-linejoin:miter;stroke-miterlimit:4;stroke-dasharray:none;stroke-opacity:1"/><path d="M137.11 38.792a29.763 32.104 0 1 1-59.526 0 29.763 32.104 0 1 1 59.526 0z" transform="matrix(.8661 0 0 .76127 1.233 2.417)" style="fill:#fff;fill-opacity:1;fill-rule:evenodd;stroke:#000;stroke-width:3.69460511;stroke-linejoin:miter;stroke-miterlimit:4;stroke-dasharray:none;stroke-opacity:1"/><path d="M137.11 38.792a29.763 32.104 0 1 1-59.526 0 29.763 32.104 0 1 1 59.526 0z" transform="matrix(.29232 0 0 .2588 62.826 21.91)" style="fill:#fff;fill-opacity:1;fill-rule:evenodd;stroke:#000;stroke-width:7.27131605;stroke-linejoin:miter;stroke-miterlimit:4;stroke-dasharray:none;stroke-opacity:1"/><path d="m19.166 5.849.236 15.37" style="fill:none;fill-rule:evenodd;stroke:#000;stroke-width:2;stroke-linecap:butt;stroke-linejoin:miter;stroke-miterlimit:4;stroke-dasharray:none;stroke-opacity:1" transform="translate(73.03 1.736)"/><path d="m22.954 5.735.228 16.071" style="fill:none;fill-rule:evenodd;stroke:#000;stroke-width:2.00840855;stroke-linecap:butt;stroke-linejoin:miter;stroke-miterlimit:4;stroke-dasharray:none;stroke-opacity:1" transform="translate(73.03 1.736)"/><path d="m22.95 38.6.236 15.37M19.166 38.6l.236 15.37" style="fill:none;fill-rule:evenodd;stroke:#000;stroke-width:2;stroke-linecap:butt;stroke-linejoin:miter;stroke-miterlimit:4;stroke-dasharray:none;stroke-opacity:1" transform="translate(73.03 1.736)"/><path d="m13.74 32.466-14.475 8.01M15.514 35.422 1.04 43.432" style="fill:none;fill-rule:evenodd;stroke:#000;stroke-width:2.15152311;stroke-linecap:butt;stroke-linejoin:miter;stroke-miterlimit:4;stroke-dasharray:none;stroke-opacity:1" transform="translate(73.03 1.736)"/><path d="M45.686 19.674 29.984 28.44M44.03 16.127 28.33 24.892" style="fill:none;fill-rule:evenodd;stroke:#000;stroke-width:2.34384179;stroke-linecap:butt;stroke-linejoin:miter;stroke-miterlimit:4;stroke-dasharray:none;stroke-opacity:1" transform="translate(73.03 1.736)"/><path d="m1.58 15.91 14.338 8.254" style="fill:none;fill-rule:evenodd;stroke:#000;stroke-width:2.15152311;stroke-linecap:butt;stroke-linejoin:miter;stroke-miterlimit:4;stroke-dasharray:none;stroke-opacity:1" transform="translate(73.03 1.736)"/><path d="m-1.66 18.817 15.617 8.588M28.134 35.37l15.618 8.587M30.262 31.823 45.88 40.41" style="fill:none;fill-rule:evenodd;stroke:#000;stroke-width:2.29047513;stroke-linecap:butt;stroke-linejoin:miter;stroke-miterlimit:4;stroke-dasharray:none;stroke-opacity:1" transform="translate(73.03 1.736)"/><path d="M137.11 38.792a29.763 32.104 0 1 1-59.526 0 29.763 32.104 0 1 1 59.526 0z" transform="matrix(.16394 0 0 .14715 76.607 26.24)" style="fill:#fff;fill-opacity:1;fill-rule:evenodd;stroke:#000;stroke-width:12.87695503;stroke-linejoin:miter;stroke-miterlimit:4;stroke-dasharray:none;stroke-opacity:1"/><g><path d="M-145.751 81.338c-.03.004-.219-8.263-16.238-8.216-19.277.144-23.952 8.1-39.148 16.231-23.814 12.742-41.547 7.568-41.44 7.574.296.016 7.25 13.584 7.896 75.696.111 10.676-1.56 39.786 10.263 70.227 4.405 9.93 3.433 9.926 10.65 17.816 8.06 8.813 7.775 7.887 17.765 14.38 53.62 20.58 53.66 29.55 53.669 29.515.073-.316 1.694-7.653 49.844-29.272 13.397-6.016 13.529-6.388 20.442-13.597 8.857-9.237 8.39-9.465 11.103-20.06 5.38-28.812 4.707-50.195 4.677-69.01-.113-70.73 12.772-77.07 12.76-77.05-.1.085-15.497 3.753-31.909-6.219-16.14-9.806-36.772-16.954-52.582-17.243-17.758.239-17.68 9.233-17.752 9.228z" style="opacity:1;fill:#da121a;fill-opacity:1;fill-rule:nonzero;stroke:none" transform="translate(242.577 4.347)"/><path style="opacity:1;fill:#fff;fill-opacity:1;fill-rule:evenodd;stroke:none;stroke-width:2;stroke-linejoin:miter;stroke-miterlimit:4;stroke-dasharray:none;stroke-opacity:1" d="M55.179 106.344h85.61v15.049h-85.61z" transform="translate(-.985 -.155)"/><path style="opacity:1;fill:#da121a;fill-opacity:1;fill-rule:evenodd;stroke:none;stroke-width:2;stroke-linejoin:miter;stroke-miterlimit:4;stroke-dasharray:none;stroke-opacity:1" d="M58.523 108.948h18.393v9.659H58.523zM78.85 108.948h18.393v9.698H78.85zM99.058 108.948h18.393v9.659H99.058zM119.326 108.948h18.393v9.6h-18.393z" transform="translate(-.985 -.155)"/><path style="opacity:1;fill:#fff;fill-opacity:1;fill-rule:evenodd;stroke:none;stroke-width:2;stroke-linejoin:miter;stroke-miterlimit:4;stroke-dasharray:none;stroke-opacity:1" d="M-205.727 240.178h125.091v15.134h-125.091z" transform="translate(242.577 4.347)"/><path d="M-180.532 118.585c-.048.143 3.972 3.756 3.924 3.765.057-.103 62.295-.022 62.305-.043.031-.065 3.887-3.693 4.129-3.648-.035-.095-70.39-.122-70.358-.074zM-173.394 124.684c-.048.144-.994 45.02-1.042 45.03.058-.104 58.866-.141 58.876-.162.032-.065-1.788-44.957-1.546-44.912-.034-.095-56.32-.003-56.288.044zM-174.534 185.783c-.048.144-1.94 52.824-1.987 52.833.057-.103 65.96-.023 65.97-.043.032-.065-2.97-52.879-2.728-52.834-.035-.095-61.287-.003-61.255.044zM-177.244 198.616c-.048.144-18.493 40.033-18.541 40.042.057-.103 8.022-.023 8.032-.043.032-.065 10.239-25.206 10.481-25.161-.034-.095-.005-14.885.028-14.838zM-110.657 197.948c.048.143 19.413 40.7 19.46 40.71-.057-.103-8.44-.023-8.45-.043-.032-.065-10.239-25.206-10.481-25.161.034-.095-.497-15.554-.529-15.506z" style="opacity:1;fill:#fff;fill-opacity:1;fill-rule:nonzero;stroke:none" transform="translate(242.577 4.347)"/><path d="M-184.57 172.531c.049.144 80.528-.097 80.575-.088-.057-.104-9.276 13.437-9.286 13.417-.032-.065-61.07.043-61.312.088.034-.096-9.944-13.464-9.976-13.417z" style="opacity:1;fill:#fff;fill-opacity:1;fill-rule:nonzero;stroke:none" transform="translate(242.577 4.347)"/><path d="M-178.62 174.624c.047.144 32.287-.097 32.335-.088-.058-.103-.291 8.472-.301 8.451-.032-.065-24.654.043-24.896.088.034-.095-7.107-8.498-7.139-8.45zM-110.815 174.624c-.048.144-32.288-.097-32.336-.088.057-.103.29 8.472.3 8.451.033-.065 24.655.043 24.897.088-.034-.095 7.106-8.498 7.139-8.45z" style="opacity:1;fill:#fff;fill-opacity:1;fill-rule:nonzero;stroke:#da121a;stroke-width:1.39999998;stroke-miterlimit:4;stroke-dasharray:none;stroke-opacity:1" transform="translate(242.577 4.347)"/></g></svg>
